storage/app/icons/phosphoricons/fill/projector-screen-chart-fill.svg

<svg xmlns="http://www.w3.org/2000/svg" fill="currentColor" viewBox="0 0 256 256"><path d="M232 64V48a16 16 0 0 0-16-16H40a16 16 0 0 0-16 16v16a16 16 0 0 0 16 16v96h-8a8 8 0 0 0 0 16h88v17.38a24 24 0 1 0 16 0V192h88a8 8 0 0 0 0-16h-8V80a16 16 0 0 0 16-16m-128 80a8 8 0 0 1-16 0v-16a8 8 0 0 1 16 0Zm24 96a8 8 0 1 1 8-8 8 8 0 0 1-8 8m8-96a8 8 0 0 1-16 0v-24a8 8 0 0 1 16 0Zm32 0a8 8 0 0 1-16 0v-32a8 8 0 0 1 16 0ZM40 64V48h176v16z"/></svg>

<svg xmlns="http://www.w3.org/2000/svg" viewBox="0 0 256 256" fill="currentColor"><path d="M232,64V48a16,16,0,0,0-16-16H40A16,16,0,0,0,24,48V64A16,16,0,0,0,40,80v96H32a8,8,0,0,0,0,16h88v17.38a24,24,0,1,0,16,0V192h88a8,8,0,0,0,0-16h-8V80A16,16,0,0,0,232,64ZM104,144a8,8,0,0,1-16,0V128a8,8,0,0,1,16,0Zm24,96a8,8,0,1,1,8-8A8,8,0,0,1,128,240Zm8-96a8,8,0,0,1-16,0V120a8,8,0,0,1,16,0Zm32,0a8,8,0,0,1-16,0V112a8,8,0,0,1,16,0ZM40,64V48H216V64H40Z"/></svg>
